X:1
T:Title
%%score { 1 | 2 }
L:1/8
Q:1/4=92
M:4/4
K:Bb
V:1 treble nm="Grand Piano"
V:2 bass 
V:1
 [DF]>[DF] [B,D]>[CE] [DF]2 [Fd]2 | c>B B>G [DF]2 D2 | C>D E>F A2 G2 | [DF]>[EG] [DF]>[CE] [B,D]4 | %4
w: J.~B.~Mackay * * * * *||||
 [DF]>[DF] [B,D]>[CE] [DF]2 [Fd]2 | c>B B>G [DF]2 D2 | C>D E>F A2 G2 | F>F GA [DB]4 | %8
w: ||||
 [DF]<[DF] [DF]2 [EF]<[EF] [EF]2 | [FB]<[FB] [Fd]>[Ec] [DB]2 [DF]2 | G>G GG [EG]<[DF] [DB]2 | %11
w: |||
 B>B A[=EB] [_Ec]4 | [Fd]>[Fd] [Fd]>[Ec] [DB]2 [Fd]2 | c>B B>G [DF]2 D2 | C>D E>F A2 G2 | %15
w: ||||
[M:8/4] F>FGA [DB]4 z8 |] %16
w: |
V:2
 [B,,B,]>[B,,B,] [B,,F,]>[B,,F,] [B,,B,]2 [B,,B,]2 | %1
 [E,G,E]>[E,G,E] [E,G,E]>[E,B,E] [B,,B,]2 [B,,F,B,]2 | [F,A,]>[F,B,] [F,C]>[F,D] [F,CE]2 [F,A,E]2 | %3
 [B,,B,]>[B,,B,] [B,,B,]>[B,,F,] [B,,F,]4 | [B,,B,]>[B,,B,] [B,,F,]>[B,,F,] [B,,B,]2 [B,,B,]2 | %5
 [E,G,E]>[E,G,E] [E,G,E]>[E,B,E] [B,,B,]2 [B,,F,B,]2 | [F,A,]>[F,B,] [F,C]>[F,D] [F,CE]2 [F,A,E]2 | %7
 [F,A,]>[F,A,] [F,B,=E][F,C_E] [B,,B,]4 | [B,,B,]<[B,,B,] [B,,B,]2 [C,A,]<[C,A,] [C,A,]2 | %9
 [D,B,]<[D,B,] [B,,B,]>[B,,F,] [B,,F,]2 [B,,B,]2 | %10
 [E,B,E]>[E,B,E] [E,B,E][E,B,E] [B,,B,]<[B,,B,] [B,,F,]2 | [C,=E,C]>[C,E,C] [C,F,C][C,G,] [F,A,]4 | %12
 [B,,B,]>[B,,B,] [B,,B,]>[B,,F,] [B,,F,]2 [B,,B,]2 | %13
 [E,G,E]>[E,G,E] [E,G,E]>[E,B,E] [B,,B,]2 [B,,F,B,]2 | [F,A,]>[F,B,] [F,C]>[F,D] [F,CE]2 [F,A,E]2 | %15
[M:8/4] [F,A,]>[F,A,][F,B,=E][F,C_E] [B,,B,]4 z8 |] %16

